X:168
T:Gloster House. THO5.168
T:Gloucester House aka. THO5.168
M:6/8
L:1/8
B:Thompson's Complete Collection of 200 Favourite Dances Vol.5
F:https://www.libraryofdance.org/manuals/1780c-Thompson-Compleat-5.pdf
Z:vmp. Peter Dunk 2024
Q:3/8=100
K:D
ded def|g2e {d/}cBA|ded dfg|aba gfe|
fdd dBB|gee ecc|def edc|ddd d3:|
|:a2f f2d|g2e e2c|def efd|cAA A3|
d(d/c/d/c/) Bee|cff dgg|eag {g/}fed|{f/}edc d3:|
W:
W:Turn yout Partner with the Right hand
W:half round, then with the Left Hand ./.
W:lead down the middle, up again ./:
W:turn corners :/.
W:lead outsides with your Partner :/:

